src/images/logo.svg

<svg width="149" height="36" viewBox="0 0 149 36" fill="none" xmlns="http://www.w3.org/2000/svg">
<g id="elements/logo">
<circle id="dot" cx="82.5643" cy="10.5623" r="1.93779" fill="#FF4500"/>
<circle id="dot_2" cx="104.24" cy="10.5623" r="1.93779" fill="#FF4500"/>
<path id="text" fill-rule="evenodd" clip-rule="evenodd" d="M66.2582 7.39987C66.8632 7.40156 67.3533 7.89165 67.355 8.49672V22.5904C67.3533 23.1955 66.8632 23.6856 66.2582 23.6873C65.7283 23.6873 65.271 23.3036 65.1797 22.7915C64.4304 23.5411 63.4798 23.9251 62.3645 23.9251C59.4764 23.9251 57.1365 21.311 57.1365 18.0937C57.1365 14.8764 59.4764 12.2622 62.3645 12.2622C63.4798 12.2622 64.412 12.6279 65.1617 13.3775V8.49672C65.1633 7.89178 65.6532 7.40174 66.2582 7.39987ZM54.888 18.8249C55.8387 18.8249 56.3869 18.1121 56.3504 17.4173C56.3402 17.1533 56.3097 16.8905 56.2591 16.6312C55.6741 14.1087 53.6269 12.2438 51.1954 12.2438C48.3073 12.2438 45.9674 14.858 45.9674 18.0753C45.9674 21.2926 48.3073 23.9067 51.1954 23.9067C53.0054 23.9067 54.3033 23.2487 55.2355 22.2068C55.6925 21.695 55.6012 20.9089 55.0526 20.5249C54.5956 20.2141 54.029 20.3238 53.6085 20.671L53.5758 20.6994C53.1654 21.0549 52.4058 21.713 51.1954 21.713C49.7333 21.713 48.4902 20.4516 48.2159 18.7881H54.888V18.8249ZM51.1773 14.4559C52.4933 14.4559 53.6269 15.4795 54.0474 16.8871H48.3073C48.7277 15.4615 49.861 14.4559 51.1773 14.4559ZM45.1632 12.3171C45.675 12.4084 46.0771 12.8473 46.0771 13.3955C46.0771 13.9622 45.6382 14.4375 45.09 14.4743H44.8706C42.7501 14.2365 41.2147 15.9184 41.2147 17.9656V22.5904C41.2147 23.2303 40.6846 23.7237 40.0446 23.6873C39.4596 23.6508 39.0211 23.139 39.0211 22.554V13.5966C39.0229 12.9916 39.513 12.5018 40.1179 12.5001C40.6662 12.5001 41.2147 12.9202 41.2147 13.5966V13.7431C42.0738 12.6643 43.5727 12.0796 45.1632 12.3171ZM83.6608 14.5656C83.6591 13.9607 83.1693 13.4707 82.5643 13.4688C81.9592 13.4705 81.4692 13.9606 81.4675 14.5656V22.5904C81.4692 23.1955 81.9592 23.6856 82.5643 23.6873C83.1693 23.6854 83.6591 23.1954 83.6608 22.5904V14.5656ZM62.3829 21.7495C60.701 21.7495 59.3483 20.1228 59.3483 18.0937C59.3483 16.083 60.701 14.4375 62.3829 14.4375C64.0648 14.4375 65.4176 16.0646 65.4176 18.0937C65.4176 20.1228 64.0464 21.7495 62.3829 21.7495ZM77.7016 7.39987C78.3067 7.40156 78.7968 7.89165 78.7985 8.49672V22.5904C78.7968 23.1955 78.3067 23.6856 77.7016 23.6873C77.1714 23.6873 76.7145 23.3036 76.6232 22.7915C75.8735 23.5411 74.9232 23.9251 73.808 23.9251C70.9198 23.9251 68.58 21.311 68.58 18.0937C68.58 14.8764 70.9198 12.2622 73.808 12.2622C74.9232 12.2622 75.8555 12.6279 76.6048 13.3775V8.49672C76.6064 7.89165 77.0965 7.40156 77.7016 7.39987ZM73.808 21.7495C72.1261 21.7495 70.7737 20.1228 70.7737 18.0937C70.7737 16.083 72.1261 14.4375 73.808 14.4375C75.4899 14.4375 76.8426 16.0646 76.8426 18.0937C76.8426 20.1228 75.4899 21.7495 73.808 21.7495ZM89.218 14.4559V22.6088C89.218 23.2119 88.743 23.6873 88.1031 23.7237C87.4981 23.7221 87.0081 23.2322 87.0062 22.6272V14.4743H86.0739C85.5257 14.4743 85.0684 13.999 85.1052 13.4323C85.1417 12.9022 85.5986 12.5181 86.1104 12.5181H87.0246V10.9279C87.0246 10.288 87.5545 9.7946 88.1944 9.83106C88.7794 9.86752 89.218 10.3793 89.218 10.9644V12.5001H90.2235C90.7721 12.5001 91.229 12.9751 91.1922 13.5417C91.1558 14.0719 90.6988 14.4559 90.187 14.4559H89.218Z" fill="#1E2537"/>
<path id="text_2" fill-rule="evenodd" clip-rule="evenodd" d="M100.223 22.5327V14.3797H101.192C101.704 14.3797 102.161 13.9957 102.197 13.4655C102.234 12.8989 101.777 12.4239 101.229 12.4239H100.223V10.8882C100.223 10.3031 99.7847 9.79133 99.1996 9.75487C98.5597 9.71841 98.0299 10.2118 98.0299 10.8517V12.442H97.1157C96.6039 12.442 96.1469 12.826 96.1105 13.3562C96.0737 13.9228 96.5309 14.3981 97.0792 14.3981H98.0115V22.5511C98.0133 23.156 98.5034 23.6459 99.1083 23.6476C99.7482 23.6111 100.223 23.1358 100.223 22.5327ZM134.107 17.4173C134.143 18.1121 133.595 18.8249 132.644 18.8249V18.7881H125.972C126.246 20.4516 127.489 21.713 128.951 21.713C130.162 21.713 130.922 21.0549 131.332 20.6994L131.365 20.671C131.785 20.3238 132.352 20.2141 132.809 20.5249C133.357 20.9089 133.449 21.695 132.992 22.2067C132.059 23.2487 130.762 23.9067 128.951 23.9067C126.063 23.9067 123.724 21.2925 123.724 18.0753C123.724 14.858 126.063 12.2438 128.951 12.2438C131.383 12.2438 133.43 14.1087 134.015 16.6312C134.066 16.8905 134.096 17.1533 134.107 17.4173ZM131.803 16.8871C131.383 15.4795 130.249 14.4559 128.933 14.4559C127.617 14.4559 126.484 15.4614 126.063 16.8871H131.803ZM142.567 13.376C142.567 12.8278 142.165 12.3889 141.653 12.2976C140.063 12.0601 138.564 12.6448 137.705 13.7236V13.577C137.705 12.9007 137.156 12.4805 136.608 12.4805C136.003 12.4822 135.513 12.9721 135.511 13.577V22.5344C135.511 23.1195 135.95 23.6313 136.535 23.6677C137.175 23.7042 137.705 23.2108 137.705 22.5709V17.946C137.705 15.8988 139.24 14.217 141.361 14.4548H141.58C142.128 14.418 142.567 13.9427 142.567 13.376ZM104.237 13.3626C104.842 13.3645 105.332 13.8545 105.333 14.4594V22.4842C105.332 23.0892 104.842 23.5792 104.237 23.5811C103.632 23.5794 103.142 23.0893 103.14 22.4842V14.4594C103.142 13.8544 103.632 13.3643 104.237 13.3626ZM116.179 12.7622C116.727 12.4161 117.411 12.2451 118.227 12.2451C118.666 12.2451 119.114 12.3192 119.571 12.4667C120.036 12.617 120.462 12.8639 120.846 13.2056C121.232 13.5489 121.549 13.9929 121.795 14.5356C122.044 15.0826 122.167 15.7459 122.167 16.5246V22.4221C122.167 22.774 122.066 23.0641 121.86 23.2789C121.652 23.495 121.376 23.603 121.046 23.603C120.716 23.603 120.439 23.495 120.232 23.2789C120.026 23.0641 119.925 22.774 119.925 22.4221V16.4647C119.925 15.7615 119.744 15.2198 119.388 14.8278C119.037 14.4412 118.542 14.247 117.887 14.247C117.233 14.247 116.742 14.4408 116.398 14.8263C116.047 15.2184 115.869 15.7608 115.869 16.4647V22.4221C115.869 22.774 115.769 23.0641 115.562 23.2789C115.355 23.495 115.078 23.603 114.749 23.603C114.419 23.603 114.142 23.495 113.935 23.2789C113.728 23.0641 113.628 22.774 113.628 22.4221V16.4647C113.628 15.7615 113.447 15.2198 113.091 14.8278C112.739 14.4412 112.245 14.247 111.59 14.247C110.935 14.247 110.445 14.4408 110.1 14.8263C109.75 15.2184 109.572 15.7608 109.572 16.4647V22.4221C109.572 22.774 109.471 23.0641 109.265 23.2789C109.058 23.495 108.781 23.603 108.451 23.603C108.121 23.603 107.845 23.495 107.637 23.2789C107.431 23.0641 107.33 22.774 107.33 22.4221V13.426C107.33 13.074 107.431 12.784 107.637 12.5692C107.845 12.3531 108.121 12.2451 108.451 12.2451C108.781 12.2451 109.058 12.3531 109.265 12.5692C109.412 12.7226 109.506 12.9144 109.547 13.1398L109.555 13.2002L109.687 13.0677C109.775 12.9861 109.873 12.9087 109.98 12.8355L110.147 12.7287C110.378 12.5916 110.646 12.4774 110.95 12.3853C111.261 12.2913 111.628 12.2451 112.05 12.2451C112.608 12.2451 113.162 12.3844 113.708 12.6609C114.142 12.8808 114.534 13.2339 114.885 13.7172L114.984 13.8595L115.132 13.6766C115.385 13.3821 115.659 13.128 115.954 12.9146L116.179 12.7622Z" fill="#1E2537"/>
<g id="elements/sign">
<path id="mglass" fill-rule="evenodd" clip-rule="evenodd" d="M30.8765 15.4184C30.8765 18.9154 29.6844 22.1341 27.7372 24.7171L34.453 31.4329C35.4464 32.4263 35.4464 34.0158 34.453 35.0093C33.9761 35.5259 33.3006 35.7643 32.6647 35.7643C32.0289 35.7643 31.3534 35.4862 30.8765 35.0093L24.121 28.2538L24.0416 28.1743C21.5778 29.8433 18.5974 30.8368 15.4184 30.8368C6.91444 30.8368 0 23.9224 0 15.4184C0 6.91444 6.91444 0 15.4184 0C23.9224 0 30.8765 6.91444 30.8765 15.4184ZM15.4121 29.8228C23.3938 29.8228 29.8642 23.3688 29.8642 15.4074C29.8642 7.44592 23.3938 0.991902 15.4121 0.991902C7.43042 0.991902 0.959997 7.44592 0.959997 15.4074C0.959997 23.3688 7.43042 29.8228 15.4121 29.8228Z" fill="#1E2537"/>
<g id="face">
<path id="Shape" fill-rule="evenodd" clip-rule="evenodd" d="M23.218 9.88546C24.1711 9.88546 24.9437 9.11282 24.9437 8.15972C24.9227 7.22167 24.1563 6.47218 23.218 6.47218C22.2797 6.47218 21.5133 7.22167 21.4923 8.15972C21.4923 9.11282 22.2649 9.88546 23.218 9.88546ZM21.4317 7.80549L17.0542 6.77533L17.0542 6.77523L21.4317 7.80549ZM17.0538 6.77523L17.0542 6.77533L15.354 11.9637L17.0538 6.77523ZM18.7882 21.4791C17.9236 22.3428 16.5313 22.5093 15.3622 22.5093C14.1944 22.5093 12.8008 22.3428 11.9375 21.4791H18.7882ZM5.53024 17.4939C4.7345 17.1446 4.22071 16.3577 4.22101 15.4887C4.22045 14.5686 4.79551 13.7463 5.66002 13.4312C6.52453 13.1161 7.49383 13.3753 8.08555 14.08L5.53024 17.4939ZM25.0384 13.423C24.1604 13.116 23.1842 13.3973 22.6043 14.1246L25.1077 17.5302C25.9498 17.203 26.5047 16.3922 26.5047 15.4887C26.5045 14.5585 25.9164 13.7301 25.0384 13.423Z" fill="white"/>
<path id="Shape_2" fill-rule="evenodd" clip-rule="evenodd" d="M4.96842 18.4999C4.96842 22.3065 9.60976 25.4033 15.3151 25.4033C21.0204 25.4033 25.6622 22.3065 25.663 18.4999C25.663 18.2542 25.6436 18.012 25.606 17.7728C26.4323 17.3105 26.9424 16.436 26.9381 15.4892C26.9364 14.042 25.7637 12.8693 24.3166 12.8677C23.6579 12.8663 23.0231 13.1143 22.5398 13.5619C20.8098 12.4352 18.4923 11.7081 15.9262 11.6082L17.3419 7.28734L21.0598 8.16275C21.0624 9.35322 22.0276 10.3172 23.218 10.3184C24.4094 10.317 25.3749 9.35154 25.3763 8.16016C25.3751 6.96861 24.4096 6.0029 23.218 6.00146C22.3529 6.00252 21.5717 6.51903 21.2319 7.31459L17.1572 6.35526L17.1481 6.3531L16.7666 6.26314L15.0184 11.5987C12.3554 11.6488 9.9415 12.3737 8.14698 13.5255C7.67078 13.1034 7.05531 12.8672 6.40956 12.8672C4.96262 12.8691 3.79018 14.0418 3.78851 15.4887C3.78856 16.3983 4.25976 17.243 5.03373 17.7209C4.99048 17.9766 4.96842 18.2369 4.96842 18.4999ZM5.83345 18.4999C5.83345 18.2248 5.86245 17.9506 5.91996 17.6816C5.92179 17.6785 5.9232 17.6752 5.92463 17.6719L5.92644 17.6677C5.94951 17.6154 5.96186 17.5589 5.96277 17.5017C6.26337 16.3555 7.07304 15.317 8.23781 14.4853C8.30453 14.4597 8.36404 14.4183 8.41125 14.3646C10.1418 13.1934 12.5967 12.4611 15.3151 12.4611C18.0611 12.4611 20.5373 13.2081 22.2704 14.3996C22.3193 14.4594 22.3834 14.5048 22.4559 14.5311C23.596 15.3624 24.3854 16.394 24.6747 17.5302C24.6747 17.5953 24.6893 17.6596 24.7176 17.7183C24.7699 17.9744 24.7967 18.2352 24.7967 18.4999C24.7967 21.8294 20.5433 24.5383 15.3151 24.5383C10.0868 24.5383 5.83345 21.8298 5.83345 18.4999ZM23.2626 14.0835C24.2656 14.8858 25.0017 15.8412 25.378 16.8896C25.8175 16.5583 26.0748 16.0391 26.0722 15.4887C26.0713 14.5191 25.2854 13.7332 24.3158 13.7323C23.9359 13.7317 23.5661 13.855 23.2626 14.0835ZM4.65355 15.4887C4.6545 14.5192 5.44007 13.7335 6.40956 13.7323C6.76863 13.7322 7.11909 13.8421 7.41387 14.0471C6.40697 14.8417 5.66347 15.7893 5.27464 16.8295C4.88711 16.5008 4.65355 16.0134 4.65355 15.4887ZM23.2176 6.86607C22.5048 6.86607 21.9244 7.4465 21.9244 8.15972C21.9244 8.87294 22.5048 9.45295 23.2176 9.45295C23.9304 9.45295 24.5108 8.87294 24.5108 8.15972C24.5108 7.4465 23.9308 6.86607 23.2176 6.86607ZM11.6313 21.7844C12.4094 22.563 13.63 22.9414 15.3622 22.9414C17.0945 22.9414 18.3146 22.563 19.0935 21.7844C19.2028 21.6753 19.2455 21.5161 19.2056 21.3669C19.1657 21.2177 19.0492 21.1011 18.9 21.0611C18.7508 21.0211 18.5917 21.0637 18.4824 21.1729C17.8739 21.7805 16.8531 22.0764 15.3622 22.0764C13.8709 22.0764 12.851 21.7805 12.2433 21.1729C12.0745 21.0039 11.8006 21.0038 11.6316 21.1726C11.4626 21.3415 11.4625 21.6154 11.6313 21.7844Z" fill="#1E2537"/>
<path id="Shape_3" fill-rule="evenodd" clip-rule="evenodd" d="M10.2611 17.2426C10.2611 16.362 11.0003 15.6228 11.8809 15.6228C12.7615 15.6228 13.476 16.362 13.476 17.2426C13.476 18.1232 12.7619 18.8377 11.8809 18.8377C10.9998 18.8377 10.2611 18.1232 10.2611 17.2426ZM17.248 17.2426C17.248 16.3611 17.988 15.6228 18.8695 15.6228C19.7505 15.6228 20.4646 16.3611 20.4646 17.2426C20.4646 18.1236 19.751 18.8377 18.8695 18.8377C17.988 18.8377 17.248 18.1236 17.248 17.2426Z" fill="#FF4500"/>
</g>
</g>
</g>
</svg>

<svg width="149" height="36" fill="none" xmlns="http://www.w3.org/2000/svg"><circle cx="82.564" cy="10.562" r="1.938" fill="#FF4500"/><circle cx="104.24" cy="10.562" r="1.938" fill="#FF4500"/><path fill-rule="evenodd" clip-rule="evenodd" d="M66.258 7.4a1.1 1.1 0 0 1 1.097 1.097V22.59a1.098 1.098 0 0 1-2.175.201c-.75.75-1.7 1.134-2.815 1.134-2.889 0-5.229-2.614-5.229-5.831 0-3.218 2.34-5.832 5.228-5.832 1.116 0 2.048.366 2.798 1.115v-4.88A1.1 1.1 0 0 1 66.258 7.4Zm-11.37 11.425c.95 0 1.499-.713 1.462-1.408a5.14 5.14 0 0 0-.09-.786c-.586-2.522-2.633-4.387-5.065-4.387-2.888 0-5.228 2.614-5.228 5.831 0 3.218 2.34 5.832 5.228 5.832 1.81 0 3.108-.658 4.04-1.7a1.131 1.131 0 0 0-.182-1.682c-.457-.31-1.024-.201-1.444.146l-.033.028c-.41.356-1.17 1.014-2.38 1.014-1.463 0-2.706-1.261-2.98-2.925h6.672v.037Zm-3.71-4.37c1.315 0 2.449 1.024 2.87 2.432h-5.74c.42-1.426 1.553-2.431 2.87-2.431Zm-6.015-2.138a1.1 1.1 0 0 1 .914 1.079c0 .566-.439 1.041-.987 1.078h-.22c-2.12-.238-3.655 1.444-3.655 3.492v4.624c0 .64-.53 1.134-1.17 1.097-.585-.036-1.024-.548-1.024-1.133v-8.957a1.1 1.1 0 0 1 1.097-1.097c.548 0 1.097.42 1.097 1.097v.146c.859-1.079 2.358-1.663 3.948-1.426Zm38.498 2.249a1.1 1.1 0 0 0-1.097-1.097 1.1 1.1 0 0 0-1.096 1.097v8.024a1.1 1.1 0 0 0 1.096 1.097 1.1 1.1 0 0 0 1.097-1.097v-8.024ZM62.383 21.75c-1.682 0-3.035-1.627-3.035-3.656 0-2.011 1.353-3.657 3.035-3.657 1.682 0 3.035 1.628 3.035 3.657s-1.372 3.655-3.035 3.655ZM77.702 7.4a1.1 1.1 0 0 1 1.097 1.097V22.59a1.098 1.098 0 0 1-2.175.201c-.75.75-1.7 1.134-2.816 1.134-2.888 0-5.228-2.614-5.228-5.831 0-3.218 2.34-5.832 5.228-5.832 1.115 0 2.047.366 2.797 1.115v-4.88A1.1 1.1 0 0 1 77.702 7.4Zm-3.894 14.35c-1.682 0-3.034-1.627-3.034-3.656 0-2.011 1.352-3.657 3.034-3.657 1.682 0 3.035 1.628 3.035 3.657s-1.353 3.655-3.035 3.655Zm15.41-7.294v8.153c0 .603-.475 1.078-1.115 1.115a1.1 1.1 0 0 1-1.097-1.097v-8.153h-.932a.981.981 0 0 1-.969-1.042c.037-.53.494-.914 1.005-.914h.915v-1.59c0-.64.53-1.133 1.17-1.097.584.037 1.023.548 1.023 1.133V12.5h1.005a.98.98 0 0 1 .97 1.042c-.037.53-.494.914-1.006.914h-.969ZM100.223 22.533V14.38h.969c.512 0 .969-.384 1.005-.915a.98.98 0 0 0-.968-1.041h-1.006v-1.536c0-.585-.438-1.097-1.023-1.133a1.095 1.095 0 0 0-1.17 1.097v1.59h-.914c-.512 0-.97.384-1.005.914a.981.981 0 0 0 .968 1.042h.933v8.153a1.1 1.1 0 0 0 1.096 1.097c.64-.037 1.115-.512 1.115-1.115Zm33.884-5.116c.036.695-.512 1.408-1.463 1.408v-.037h-6.672c.274 1.664 1.517 2.925 2.979 2.925 1.211 0 1.971-.658 2.381-1.014l.033-.028c.42-.347.987-.457 1.444-.146.548.384.64 1.17.183 1.682-.933 1.042-2.23 1.7-4.041 1.7-2.888 0-5.227-2.614-5.227-5.832 0-3.217 2.339-5.831 5.227-5.831 2.432 0 4.479 1.865 5.064 4.387.051.26.081.522.092.786Zm-2.304-.53c-.42-1.408-1.554-2.431-2.87-2.431s-2.449 1.005-2.87 2.431h5.74Zm10.764-3.511a1.1 1.1 0 0 0-.914-1.078c-1.59-.238-3.089.347-3.948 1.426v-.147c0-.676-.549-1.097-1.097-1.097a1.1 1.1 0 0 0-1.097 1.097v8.957c0 .585.439 1.097 1.024 1.134.64.036 1.17-.457 1.17-1.097v-4.625c0-2.047 1.535-3.729 3.656-3.491h.219c.548-.037.987-.512.987-1.079Zm-38.33-.013a1.099 1.099 0 0 1 1.096 1.096v8.025a1.099 1.099 0 0 1-1.096 1.097 1.1 1.1 0 0 1-1.097-1.097V14.46a1.1 1.1 0 0 1 1.097-1.096Zm11.942-.6c.548-.347 1.232-.518 2.048-.518.439 0 .887.074 1.344.222.465.15.891.397 1.275.739.386.343.703.787.949 1.33.249.547.372 1.21.372 1.989v5.897c0 .352-.101.642-.307.857-.208.216-.484.324-.814.324-.33 0-.607-.108-.814-.324-.206-.215-.307-.505-.307-.857v-5.957c0-.704-.181-1.245-.537-1.637-.351-.387-.846-.581-1.501-.581-.654 0-1.145.194-1.489.58-.351.391-.529.934-.529 1.638v5.957c0 .352-.1.642-.307.857-.207.216-.484.324-.813.324-.33 0-.607-.108-.814-.324-.207-.215-.307-.505-.307-.857v-5.957c0-.704-.181-1.245-.537-1.637-.352-.387-.846-.581-1.501-.581-.655 0-1.145.194-1.49.58-.35.391-.528.934-.528 1.638v5.957c0 .352-.101.642-.307.857-.207.216-.484.324-.814.324-.33 0-.606-.108-.814-.324-.206-.215-.307-.505-.307-.857v-8.996c0-.352.101-.642.307-.857.208-.216.484-.324.814-.324.33 0 .607.108.814.324.147.154.241.345.282.57l.008.061.132-.132c.088-.082.186-.16.293-.232l.167-.107c.231-.137.499-.252.803-.344.311-.094.678-.14 1.1-.14.558 0 1.112.14 1.658.416.434.22.826.573 1.177 1.056l.099.143.148-.183c.253-.295.527-.549.822-.762l.225-.153Z" fill="#1E2537"/><g fill-rule="evenodd" clip-rule="evenodd"><path d="M30.877 15.418c0 3.497-1.193 6.716-3.14 9.3l6.716 6.715a2.518 2.518 0 0 1 0 3.576c-.477.517-1.152.755-1.788.755a2.6 2.6 0 0 1-1.788-.755l-6.756-6.755-.08-.08a15.37 15.37 0 0 1-8.623 2.663C6.914 30.837 0 23.922 0 15.418 0 6.914 6.914 0 15.418 0s15.459 6.914 15.459 15.418ZM15.412 29.823c7.982 0 14.452-6.454 14.452-14.416 0-7.961-6.47-14.415-14.452-14.415S.96 7.446.96 15.407c0 7.962 6.47 14.416 14.452 14.416Z" fill="#1E2537"/><path d="M23.218 9.885c.953 0 1.726-.772 1.726-1.725a1.726 1.726 0 0 0-3.452 0c0 .953.773 1.725 1.726 1.725Zm-1.786-2.08-4.378-1.03 4.378 1.03Zm-4.378-1.03-1.7 5.189 1.7-5.189Zm1.734 14.704c-.864.864-2.257 1.03-3.426 1.03-1.168 0-2.561-.166-3.425-1.03h6.851ZM5.53 17.494a2.19 2.19 0 1 1 2.556-3.414L5.53 17.494Zm19.508-4.071a2.189 2.189 0 0 0-2.434.702l2.504 3.405a2.19 2.19 0 0 0-.07-4.107Z" fill="#fff"/><path d="M4.968 18.5c0 3.806 4.642 6.903 10.347 6.903 5.705 0 10.347-3.096 10.348-6.903 0-.246-.02-.488-.057-.727a2.603 2.603 0 0 0 1.332-2.284 2.624 2.624 0 0 0-2.621-2.621 2.607 2.607 0 0 0-1.777.694c-1.73-1.127-4.048-1.854-6.614-1.954l1.416-4.32 3.718.875a2.16 2.16 0 0 0 2.158 2.155 2.16 2.16 0 0 0 2.158-2.158 2.16 2.16 0 0 0-2.158-2.159 2.163 2.163 0 0 0-1.986 1.314l-4.075-.96-.009-.002-.381-.09-1.749 5.336c-2.663.05-5.077.775-6.871 1.926a2.615 2.615 0 0 0-1.737-.658 2.624 2.624 0 0 0-1.376 4.854 4.669 4.669 0 0 0-.066.779Zm.865 0c0-.275.03-.55.087-.818l.005-.01.001-.004a.428.428 0 0 0 .037-.166c.3-1.146 1.11-2.185 2.275-3.017a.441.441 0 0 0 .173-.12c1.73-1.172 4.186-1.904 6.904-1.904 2.746 0 5.222.747 6.955 1.939.05.06.113.105.186.131 1.14.831 1.93 1.863 2.219 3 0 .064.014.129.043.187.052.256.079.517.079.782 0 3.33-4.254 6.038-9.482 6.038S5.833 21.83 5.833 18.5Zm17.43-4.416c1.003.802 1.739 1.757 2.115 2.806a1.758 1.758 0 0 0-2.115-2.806Zm-18.61 1.405a1.758 1.758 0 0 1 2.76-1.442c-1.006.795-1.75 1.742-2.138 2.782a1.758 1.758 0 0 1-.621-1.34Zm18.565-8.623a1.295 1.295 0 0 0 0 2.587c.712 0 1.293-.58 1.293-1.293s-.58-1.294-1.293-1.294ZM11.63 21.784c.778.779 1.999 1.157 3.731 1.157 1.732 0 2.953-.378 3.731-1.157a.432.432 0 1 0-.61-.611c-.61.608-1.63.903-3.12.903-1.492 0-2.512-.296-3.12-.903a.433.433 0 1 0-.612.611Z" fill="#1E2537"/><path d="M10.261 17.243c0-.881.74-1.62 1.62-1.62.88 0 1.595.739 1.595 1.62 0 .88-.714 1.595-1.595 1.595s-1.62-.715-1.62-1.595Zm6.987 0c0-.882.74-1.62 1.621-1.62s1.596.738 1.596 1.62c0 .88-.714 1.595-1.596 1.595-.881 0-1.621-.714-1.621-1.595Z" fill="#FF4500"/></g></svg>
